src/icons/IconDownload/IconDownload_size_m.svg

<svg viewBox="0 0 24 24" xmlns="http://www.w3.org/2000/svg">
  <path d="M22 22v-2H2v2h20zM18.59 8.59L20 10l-8 8-8-8 1.41-1.41L11 14.17V2h2v12.17l5.59-5.58z" />
</svg>

<svg viewBox="0 0 24 24" xmlns="http://www.w3.org/2000/svg">
  <path d="M22 22V20H2V22H22Z" />
  <path d="M18.59 8.59L20 10L12 18L4 10L5.41 8.59L11 14.17V2L13 2V14.17L18.59 8.59Z" />
</svg>
